polaris-icons/icons/newicons/CreditCardMajor.svg

<svg width="20" height="20" viewBox="0 0 20 20" fill="none" xmlns="http://www.w3.org/2000/svg">
<path d="M5.75 11.5C5.33579 11.5 5 11.8358 5 12.25C5 12.6642 5.33579 13 5.75 13H9.75C10.1642 13 10.5 12.6642 10.5 12.25C10.5 11.8358 10.1642 11.5 9.75 11.5H5.75Z" fill="black"/>
<path fill-rule="evenodd" clip-rule="evenodd" d="M2 7.75C2 5.67893 3.67893 4 5.75 4H14.25C16.3211 4 18 5.67893 18 7.75V12.25C18 14.3211 16.3211 16 14.25 16H5.75C3.67893 16 2 14.3211 2 12.25V7.75ZM14.25 5.5C15.3208 5.5 16.2169 6.24801 16.4442 7.25H3.55575C3.78312 6.24801 4.67921 5.5 5.75 5.5H14.25ZM16.5 9.25H3.5V12.25C3.5 13.4926 4.50736 14.5 5.75 14.5H14.25C15.4926 14.5 16.5 13.4926 16.5 12.25V9.25Z" fill="black"/>
</svg>

<svg viewBox="0 0 20 20" fill="none" xmlns="http://www.w3.org/2000/svg"><path d="M5.75 11.5a.75.75 0 0 0 0 1.5h4a.75.75 0 0 0 0-1.5h-4Z" fill="#000"/><path fill-rule="evenodd" clip-rule="evenodd" d="M2 7.75a3.75 3.75 0 0 1 3.75-3.75h8.5a3.75 3.75 0 0 1 3.75 3.75v4.5a3.75 3.75 0 0 1-3.75 3.75h-8.5a3.75 3.75 0 0 1-3.75-3.75v-4.5Zm12.25-2.25a2.25 2.25 0 0 1 2.194 1.75h-12.888a2.25 2.25 0 0 1 2.194-1.75h8.5Zm2.25 3.75h-13v3a2.25 2.25 0 0 0 2.25 2.25h8.5a2.25 2.25 0 0 0 2.25-2.25v-3Z" fill="#000"/></svg>
